assets/icons/icon-speed-calendar.svg

<svg width="64" height="64" viewBox="0 0 64 64" fill="none" xmlns="http://www.w3.org/2000/svg">
<rect width="64" height="64" fill="#1E1E1E"/>
<g id="Asset">
<path d="M-320 -245C-320 -246.105 -319.105 -247 -318 -247H834C835.105 -247 836 -246.105 836 -245V563C836 564.105 835.105 565 834 565H-318C-319.105 565 -320 564.105 -320 563V-245Z" fill="white"/>
<g id="IconSimple">
<rect x="-258.5" y="-15.5" width="419" height="95" rx="4.5" stroke="#8A38F5" stroke-dasharray="10 5"/>
<g id="Type=Calendar">
<g id="Vector">
<path d="M19.3805 11.0617C19.0342 10.2804 18.3432 9.95629 17.516 10.0047C15.8272 10.3293 15.8715 11.7003 15.9139 13.0141C15.92 13.2028 15.9261 13.3904 15.9269 13.5735L13.5941 13.5777H13.5719C11.8296 13.5775 10.6885 13.5774 9.32522 14.9224C7.97858 16.251 7.98972 17.7165 8.00241 19.3794C8.00357 19.5339 8.0048 19.6901 8.00486 19.8481L8.00641 22.8428L55.9767 22.8444L55.9814 19.7852C55.9815 19.6753 55.9817 19.5656 55.9819 19.4561C55.983 18.9295 55.9841 18.4074 55.9647 17.8773C55.8833 15.6454 54.0592 13.7245 51.7713 13.5923C51.3753 13.5694 50.9745 13.5719 50.5754 13.5743C50.4659 13.575 50.3566 13.5756 50.2475 13.5758L47.6721 13.582L47.6732 12.4984C47.6735 12.4442 47.6741 12.3904 47.6746 12.337C47.6811 11.6696 47.6871 11.063 47.1577 10.5349C46.8144 10.1941 46.3466 10.0022 45.8584 10.002C45.3695 10.0063 44.903 10.2038 44.5642 10.55C44.049 11.0746 44.0531 11.627 44.0579 12.276C44.0583 12.3243 44.0586 12.373 44.0587 12.4224L44.0644 13.5752L19.5514 13.5793L19.5465 12.4592C19.5463 12.3939 19.5468 12.3289 19.5473 12.2642C19.5504 11.8518 19.5534 11.4516 19.3805 11.0617Z" fill="#001331"/>
<path d="M8 24H56V50C56 52.2091 54.2091 54 52 54H12C9.79086 54 8 52.2091 8 50V24Z" fill="#001331"/>
</g>
</g>
</g>
</g>
</svg>

<?xml version="1.0" encoding="utf-8"?>
<!-- Generator: Adobe Illustrator 25.4.1, SVG Export Plug-In . SVG Version: 6.00 Build 0)  -->
<svg version="1.1" id="Layer_1" xmlns="http://www.w3.org/2000/svg" xmlns:xlink="http://www.w3.org/1999/xlink" x="0px" y="0px"
	 viewBox="0 0 64 64" style="enable-background:new 0 0 64 64;" xml:space="preserve">
<style type="text/css">
	.st0{fill:#001331;}
</style>
<g id="IconSimple">
	<g id="Type_x3D_Calendar">
		<g id="Vector">
			<path class="st0" d="M19.4,11.1c-0.3-0.8-1-1.1-1.9-1.1c-1.7,0.3-1.6,1.7-1.6,3c0,0.2,0,0.4,0,0.6l-2.3,0h0c-1.7,0-2.9,0-4.2,1.3
				C8,16.3,8,17.7,8,19.4c0,0.2,0,0.3,0,0.5l0,3l48,0l0-3.1c0-0.1,0-0.2,0-0.3c0-0.5,0-1,0-1.6c-0.1-2.2-1.9-4.2-4.2-4.3
				c-0.4,0-0.8,0-1.2,0c-0.1,0-0.2,0-0.3,0l-2.6,0l0-1.1c0-0.1,0-0.1,0-0.2c0-0.7,0-1.3-0.5-1.8c-0.3-0.3-0.8-0.5-1.3-0.5
				c-0.5,0-1,0.2-1.3,0.5c-0.5,0.5-0.5,1.1-0.5,1.7c0,0,0,0.1,0,0.1l0,1.2l-24.5,0l0-1.1c0-0.1,0-0.1,0-0.2
				C19.6,11.9,19.6,11.5,19.4,11.1z"/>
			<path class="st0" d="M8,24h48v26c0,2.2-1.8,4-4,4H12c-2.2,0-4-1.8-4-4V24z"/>
		</g>
	</g>
</g>
</svg>
